X: 583
T: Doktor Ne İçin Nabzımı Aldın
C: Şevki Bey
O: Turkey
F: http://compmusic.upf.edu/node/140
N: hicaz-uzzal--sarki--agiraksak--doktor_ne--sevki_bey
N: makam= hicaz-uzzal
N: form= sarki
N: usul= agiraksak = 9/4
M: 9/4
L: 1/16
K: C _7/8B ^f ^c 
Q: 1/4=99
%%MIDI tuningsystem comma53
a6g2 f8 g6=f2 e12  | =f6e2 d8 e6d2 c12  | \
w:  ARANAĞME  |   | 
g4 =f2e2 f4 e2d2 d4 e4 d2c2 =B2c2 d2e2  | 
w:   | 
c4 d8 A4 B2A2 B2c2 d12  | g6=f2 e8 f6e2 d12  | \
w:   |   | 
e6d2 c8 d4 c2B2 A12  | 
w:   | 
d4 c2B2 A4 a4 g2=f2 e2d2 c2d2 c2B2 B2A2  | \
w:   | 
A12 e2=f2 e2d2 c2B2 A12  | 
w:   | 
z8 c6d2 d14e2 c2B2  | A8 e4 =f2e2 e2d2 d2c2 d8 z4  | \
w:  Dok *  tor   |  *  ne  i *  çin   | 
g4 =f2e2 e2d2 d2c2 d16-d4  | 
w:  nab *  *  zı *  mı  *  al  | 
z2d4e2 f2^e2 f6g4a2 f2=e2 d8  | z4 g4 =f4 e2f2 e2d2 d2e2 d2c2 =B2c2 d2e2  | 
w:  dı   |  dın  *  e *  le  *  *  *  söy  | 
c4 d8 A4 B4 c4 d8 c2e2  | d4 z4 a4 g2f2 g16 f2e2  | \
w:  le   *  SAZ  |  *  Teş *  *  his   | 
f6e2 a4 g2f2 (3f2e2f2 g2e2 d12  | 
w:  *  *  o lu *  nur   | 
a4 g2f2 f2e2 f2e2 e16-e4  | z2g2 =f2e2 d2c2 d6f2 e2d2 c2B2 A8  | 
w:  mu  *  *  gö *  nü *  lün   |  yâ   | 
z4 g4 =f2e2 d2e2 d2c2 B2c2 B4 A8  | \
w:  yâ *  *  re *  si  *  *  *  böy  | 
G4 A8 a2g2 f3^e d2e2 f8 =e2g2  | 
w:  le   *  SAZ  | 
f4 z4 d6^e2 f8 a2g2 f2e2 f4  | a4 g2f2 =b4 a2g2 a2g2 f2e2 d12  | 
w:  *  Sev *  dâ  |  *  *  ze de *  yim   | 
a4 ^g2^1/4f2 g2f2 f2e2 e16-e4  | z2d4e2 f2^e2 f6g4a2 f2=e2 d8  | \
w:  din *  *  le  *  be *  nim   |  ka   | 
z4 g4 =f4 e2f2 e2d2 d2e2 d2c2 =B2c2 d2e2  | 
w:  kal *  bi *  mi  *  *  *  şöy  | 
c4 d8 A4 B4 c4 d8 c2e2  | d4 z4 a4 g2f2 g16 f2e2  | \
w:  le   *  SAZ  |  *  Câ *  *  nân   | 
f6e2 a4 g2f2 (3f2e2f2 g2e2 d12  | 
w:  *  *  di ye  *  her   | 
a4 g2f2 f2e2 f2e2 e16-e4  | z2g2 =f2e2 d2c2 d6f2 e2d2 c2B2 A8  | 
w:  dar *  *  be *  de  *  fer  |  yâ   | 
z4 g4 =f2e2 d2e2 d2c2 B2c2 B4 A8  | \
w:  yâd_ *  *  e *  der  *  *  *  öy  | 
G4 A8 e2d2 c2B2 B2A2 A12  | 
w:  le   *  SAZ  | 
z4 d8 e4 e16-e4  | e4 g4 f4 e4 e4 {g}f2e2 e12  | \
w:  Çek  *  neş  |  *  te *  ri ni   | 
z4 e8 g4 f6e2 d12  | f4 g12 g2a2 g2f2 g12  | 
w:  aç ma  sa *  kın   |  yâ   | 
f4 g4 a4 =b4 =c'4 b4 a4 g4 f4  | z4 =b4 a4 a2g2 g4 f4 a2g2 f4 f2e2  | 
w:  (yâ)   |  yâ *  re *  me  *  yâ  | 
e12 =c'4 =b2a2 g2f2 e12  | z4 =b4 a4 g4 g8 g8 f4  | \
w:  re   SAZ  |  Aşk  *  *  has  | 
z4 a4 g4 f4 e4 f2e2 e12  | 
w:  ta *  sı yım   | 
z4 e4 f4 g4 f6e2 d8 z4  | c4 d12 d4 {e}d2c2 d12  | \
w:  nâ *  fi le  *  yok   |  yâ   | 
c4 d4 e4 f4 a4 g4 =f4 e4 d4  | 
w:  (yâ)   | 
z4 g4 =f4 e2f2 e2d2 d2e2 d2c2 =B2c2 d2e2  | \
w:  yâ *  re *  me  *  *  *  çâ  | 
c4 d8 A4 B4 c4 d8 c2e2  | 
w:  re   *  SAZ  | 
d4 z4 a4 g2f2 g16 f2e2  | f6e2 a4 g2f2 (3f2e2f2 g2e2 d12  | \
w:  *  Aşk  *  *  has  |  *  *  ta sı *  yım   | 
a4 g2f2 f2e2 f2e2 e16-e4  | 
w:  nâ *  *  fi *  le  *  yok   | 
z2g2 =f2e2 d2c2 d6f2 e2d2 c2B2 A8  | \
w:  yâ   | 
z4 g4 =f2e2 d2e2 d2c2 B2c2 B4 A8  | 
w:  yâ *  *  re *  me  *  *  *  çâ  | 
G4 A8 e2d2 c2B2 B2A2 A12  | |


